
d1 $ stack [
     every 10 (0.25 <~) $ every 5 (density 2) $ sound "toys:2" |*| gain sine |*| crush 4 |*| speed "1 0.5" 
    , whenmod 2 4 (density 2) $ slow 2 $ sound "bd [sn*3] bd bd" |*| gain "0.8 0.5 0.9" |*| speed 4
    , sound "bd [sn*3] bd bd" |*| gain "0.8 0.5 0.9" |*| pan (sine * 0.3)
    , juxBy 0.2 (fast 2) $ striate' 100 (1/10) $ sound "[casio, casio:3]" # gain 0.5
    , slow 32 $ jux ((# speed "0.5") . rev) $ striate' 32 (1/16) $ sound "bev" # gain 0.7
    ]
